X: 804
T: Alamo
R: jig
M: 6/8
K: Edorian
Bcd|:"Am7" edB AB"Em"G-|GAB AB"C"D-|DEG ~E3|"D" DEG ABd|
"Am7" edB AB"Em"G-|GAB AB"C"d-|dB/=c/d ega|"D" ged ABd:|
"D" ~a3 aga|bge ~a3|"C" gab age|dba "D"gab|
"D" a2 a aga|bge age|"C" geb age|dba "G"gbg|
"D" ~a3 aga|bge a3|"C" gab age|dba gab|
"D" z bg aeg-|gab age|"C" age dBA|"Em" GAB dBd||

